X:1
T:O Why Not Tonight?
T:J. Calvin Bushey
T:O Why Not Tonight?
T:Public Domain
T:Public Domain
C:J. Calvin Bushey
Z:Public Domain
%%score ( 1 2 ) ( 3 4 )
L:1/8
M:4/4
K:Eb
V:1 treble 
V:2 treble 
V:3 bass 
V:4 bass 
V:1
 (E>F) | [EG]2 [EG]2 [EG]>[EG] [E^F]>[DG] | E6 [EG]2 | [DB]2 [DB]2 [DB]>[EG] [DF]>[DA] | %4
w: 1.~O *|not let the Word de- part,|And close|eyes a- gainst the light; Poor|
w: 2.~To- *|row’s sun may nev- er rise|To bless|long de- lud- ed sight; This|
w: 3.~Our *|in pi- ty lin- gers still,|And wilt|thus His love re- quite? Re-|
w: 4.~Our *|èd Lord re- fus- es none|Who would|Him their souls u- nite; Be-|
 [EG]6 [EB]2 | [Ge]2 [Ge]2 [Ge]>[Ge] [Bd]>[Ac] | [GB]6 [FA]2 | [EG]4 [DF]3 [DF] | E6 || %9
w: sin- ner,|hard- en not your heart, Be|saved, O|to- night. *||
w: is the|time, O then be wise, Be|saved, O|to- night. O|why|
w: nounce at|once thy stub- born will, Be|saved, O|to- night. *||
w: lieve on|Him, the work is done, Be|saved, O|to- night. *||
"^Refrain" (E>F) | (E2 E>E E2) D>F | (B,2 B,>B, B,2) G2 | (D2 D>D D2) F>A | (E2 E>E E2) [GB]2 | %14
w: |||||
w: to- *|O * * * why not|night? * * * Wilt|be * * * saved? Then|not * * * to-|
w: |||||
w: |||||
 [Ge]6 ([Bd][Ac]) | [GB]6 [FA]2 | [EG]4 [DF]3 [CE]/ x/ | E6 |] %18
w: ||||
w: ||||
w: ||||
w: ||||
V:2
 E2 | x8 | E6 x2 | x8 | x8 | x8 | x8 | x8 | E6 || E2 | G6 x2 | E6 x2 | B6 x2 | G6 x2 | x8 | x8 | %16
w: do||thine||||||||||||||
w: mor-||thy||||||not|night?|to-|thou|why|night?|||
w: Lord||thou||||||||||||||
w: bless-||to||||||||||||||
 x8 | E6 |] %18
w: ||
w: ||
w: ||
w: ||
V:3
 (G,>A,) | [E,B,]2 [E,B,]2 [E,B,]>[E,B,] [E,=A,]>[E,B,] | [E,G,]6 [E,B,]2 | %3
w: ~ *|~ ~ ~ ~ ~ ~|~ ~|
 [B,,B,]2 [B,,B,]2 [B,,B,]>[B,,B,] [B,,B,]>[B,,B,] | [E,B,]6 [E,G,]2 | %5
w: ~ ~ ~ ~ ~ ~|~ ~|
 [E,B,]2 [E,B,]2 [E,B,]>[E,B,] [E,C]>[E,D] | [E,E]6 [A,,C]2 | [B,,B,]4 [B,,A,]3 [B,,A,] | %8
w: ~ ~ ~ ~ ~ ~|~ ~|~ ~ ~|
 [E,G,]6 || (G,>A,) | [E,B,]2 [E,B,]>[E,B,] E,2 z2 | [E,G,]2 [E,G,]>[E,G,] [E,G,]2 z2 | %12
w: O|why *|to- night? why not|to- night? Why not|
 [B,,F,]2 [B,,F,]>[B,,F,] [B,,F,]2 z2 | [E,B,]2 [E,B,]>[E,B,] [E,B,]2 [E,B,]2 | E,2 E,2 E,2 (CD) | %15
w: to- night? why not|to- night? Wilt thou be|saved, wilt thou be *|
 E,2 E,2 E,2 [A,,C]2 | [B,,B,]2 [B,,B,]>[B,,B,] [B,,A,]2 [B,,A,]>[B,,A,] | [E,G,]6 |] %18
w: why not, O why|to- night? * * * *||
V:4
 E,2 | x8 | x8 | x8 | x8 | x8 | x8 | x8 | x6 || E,2 | x8 | x8 | x8 | x8 | B,6 E,2 | E6 x2 | x8 | %17
w: ~|||||||||not|||||saved? Then|not||
 x6 |] %18
w: |

